app/assets/images/locator/map_pppo.svg

<?xml version="1.0" encoding="UTF-8"?>
<svg width="34px" height="48px" viewBox="0 0 34 48" version="1.1" xmlns="http://www.w3.org/2000/svg" xmlns:xlink="http://www.w3.org/1999/xlink">
    <!-- Generator: Sketch 45.1 (43504) - http://www.bohemiancoding.com/sketch -->
    <title>map_pppo</title>
    <desc>Created with Sketch.</desc>
    <defs></defs>
    <g id="LocatorMaps" stroke="none" stroke-width="1" fill="none" fill-rule="evenodd">
        <g id="MISC" transform="translate(-73.000000, -6.000000)">
            <g id="Group" transform="translate(73.000000, 6.000000)">
                <path d="M17,47.3916016 C28.3333333,33.389761 34,23.2592272 34,17 C34,7.61115925 26.3888407,0 17,0 C7.61115925,0 0,7.61115925 0,17 C0,23.2592272 5.66666667,33.389761 17,47.3916016 Z" id="Oval" fill="#205493"></path>
                <path d="M7.41933198,26.0327543 L25.8705215,26.0327543 L25.8705215,25.3230932 L7.41933198,25.3230932 L7.41933198,26.0327543 Z M20.6663398,23.9037709 L22.5587695,23.9037709 L22.5587695,20.1189115 L20.6663398,20.1189115 L20.6663398,23.9037709 Z M10.7310839,21.7747875 L15.4621582,21.7747875 L15.4621582,20.1189115 L10.7310839,20.1189115 L10.7310839,21.7747875 Z M9.94761805,18.6995892 C9.58474466,18.7376744 9.30986924,19.0444846 9.31176167,19.4092504 L9.31176167,22.4844486 C9.31176167,22.8764181 9.62945331,23.1941098 10.0214228,23.1941098 L16.1718193,23.1941098 C16.5637888,23.1941098 16.8814804,22.8764181 16.8814804,22.4844486 L16.8814804,19.4092504 C16.8814804,19.0172809 16.5637888,18.6995892 16.1718193,18.6995892 L10.0214228,18.6995892 C9.99682122,18.6981699 9.97221964,18.6981699 9.94761805,18.6995892 Z M8.75727977,12.5491927 L24.5325737,12.5491927 L25.789147,15.7795702 C25.4880141,16.2072593 24.8793614,16.5706058 24.0963686,16.5706058 C23.1896583,16.5706058 22.485911,16.0925308 22.2630774,15.5801555 C22.1064788,15.2208304 21.6880153,15.0566621 21.3289268,15.2132606 C21.1647585,15.2849364 21.0337077,15.4159872 20.962032,15.5801555 C20.7391984,16.0925308 20.0354511,16.5706058 19.1287407,16.5706058 C18.2220303,16.5706058 17.518283,16.0925308 17.2954494,15.5801555 C17.1388509,15.2208304 16.7203874,15.0566621 16.3610623,15.2132606 C16.196894,15.2849364 16.0660798,15.4159872 15.994404,15.5801555 C15.7715704,16.0925308 15.0678231,16.5706058 14.1611128,16.5706058 C13.2544024,16.5706058 12.5506551,16.0925308 12.3278215,15.5801555 C12.1709864,15.2208304 11.7527594,15.0566621 11.3934343,15.2132606 C11.2295026,15.2849364 11.0984519,15.4159872 11.0267761,15.5801555 C10.8039425,16.0925308 10.1001952,16.5706058 9.19348482,16.5706058 C8.41072859,16.5706058 7.80207589,16.2072593 7.50070646,15.7795702 L8.75727977,12.5491927 Z M9.07520796,11.1298705 L24.2146455,11.1298705 L24.2146455,10.4202093 L9.07520796,10.4202093 L9.07520796,11.1298705 Z M8.29174207,9.00088708 C7.92886868,9.03897222 7.65399326,9.34578239 7.65588569,9.71054821 L7.65588569,11.4773679 L6.05181498,15.602155 C5.98297785,15.7760219 5.98557994,15.969996 6.05914814,16.1419705 C6.29097078,16.6742164 6.68767135,17.112787 7.18277827,17.428113 L7.18277827,23.9037709 L6.70967085,23.9037709 C6.68506926,23.9023516 6.66046767,23.9023516 6.63586609,23.9037709 C6.2729927,23.9418561 5.99811728,24.2486662 6.00000971,24.613432 L6.00000971,26.7424154 C6.00000971,27.1343849 6.31770135,27.4520766 6.70967085,27.4520766 L26.5801826,27.4520766 C26.9721521,27.4520766 27.2898438,27.1343849 27.2898438,26.7424154 L27.2898438,24.613432 C27.2898438,24.2214625 26.9721521,23.9037709 26.5801826,23.9037709 L26.1070752,23.9037709 L26.1070752,19.4092504 C26.1136987,19.0172809 25.8014478,18.6943851 25.4094783,18.687525 C25.3782532,18.6870519 25.3470281,18.6887078 25.3160396,18.6922561 C24.9534027,18.7341261 24.6816025,19.044248 24.6877529,19.4092504 L24.6877529,23.9037709 L23.9780918,23.9037709 L23.9780918,19.4092504 C23.9780918,19.0172809 23.6604002,18.6995892 23.2684307,18.6995892 L19.9566787,18.6995892 C19.9320771,18.6981699 19.9074755,18.6981699 19.8828739,18.6995892 C19.5200005,18.7376744 19.2451251,19.0444846 19.2470176,19.4092504 L19.2470176,23.9037709 L8.60210054,23.9037709 L8.60210054,17.9456926 C8.79489181,17.974079 8.99288727,17.9899281 9.19348482,17.9899281 C10.167613,17.9899281 11.0532701,17.6336782 11.6772988,17.0363801 C12.3013275,17.6336782 13.1869846,17.9899281 14.1611128,17.9899281 C15.1352409,17.9899281 16.020898,17.6336782 16.6449267,17.0363801 C17.2689554,17.6336782 18.1546125,17.9899281 19.1287407,17.9899281 C20.1028689,17.9899281 20.988526,17.6336782 21.6125547,17.0363801 C22.2365834,17.6336782 23.1222405,17.9899281 24.0963686,17.9899281 C25.48967,17.9899281 26.7329963,17.2852346 27.2307053,16.1419705 C27.3042735,15.969996 27.3066391,15.7760219 27.2380385,15.602155 L25.6339678,11.4773679 L25.6339678,9.71054821 C25.6339678,9.31857871 25.3162761,9.00088708 24.9243066,9.00088708 L8.36554683,9.00088708 C8.34094524,8.99970431 8.31634366,8.99970431 8.29174207,9.00088708 L8.29174207,9.00088708 Z" id="Fill-1-Copy" fill="#FFFFFE"></path>
            </g>
        </g>
    </g>
</svg>

<svg width="34" height="48" viewBox="0 0 34 48" xmlns="http://www.w3.org/2000/svg"><title>map_pppo</title><g fill="none" fill-rule="evenodd"><path d="M17 47.392C28.333 33.39 34 23.26 34 17c0-9.39-7.61-17-17-17S0 7.61 0 17c0 6.26 5.667 16.39 17 30.392z" fill="#205493"/><path d="M7.42 26.033h18.45v-.71H7.42v.71zm13.246-2.13h1.893V20.12h-1.894v3.784zm-9.935-2.128h4.732V20.12h-4.73v1.655zM9.95 18.7c-.363.038-.638.344-.636.71v3.074c0 .392.317.71.71.71h6.15c.392 0 .71-.318.71-.71V19.41c0-.393-.318-.71-.71-.71h-6.15c-.025-.002-.05-.002-.074 0zm-1.19-6.15h15.775l1.256 3.23c-.302.427-.91.79-1.694.79-.906 0-1.61-.477-1.833-.99-.157-.36-.575-.523-.934-.367-.165.072-.296.203-.368.367-.223.513-.927.99-1.833.99-.908 0-1.612-.477-1.835-.99-.156-.36-.575-.523-.934-.367-.163.072-.294.203-.366.367-.222.513-.926.99-1.833.99-.906 0-1.61-.477-1.832-.99-.157-.36-.575-.523-.935-.367-.163.072-.295.203-.366.367-.223.513-.927.99-1.834.99-.782 0-1.39-.363-1.692-.79l1.257-3.23zm.317-1.42h15.14v-.71H9.075v.71zM8.292 9c-.363.04-.638.346-.636.71v1.767l-1.604 4.125c-.07.174-.066.368.007.54.23.532.628.97 1.123 1.286v6.476H6.71c-.025-.002-.05-.002-.074 0-.363.038-.638.345-.636.71v2.128c0 .392.318.71.71.71h19.87c.392 0 .71-.318.71-.71v-2.13c0-.39-.318-.708-.71-.708h-.473V19.41c.007-.393-.306-.716-.698-.722-.032 0-.063 0-.094.004-.363.042-.634.352-.628.717v4.494h-.71V19.41c0-.393-.318-.71-.71-.71h-3.31c-.026-.002-.05-.002-.075 0-.363.038-.638.344-.636.71v4.494H8.602v-5.958c.193.028.39.044.59.044.976 0 1.86-.356 2.485-.954.624.598 1.51.954 2.484.954.975 0 1.86-.356 2.485-.954.624.598 1.51.954 2.484.954.973 0 1.86-.356 2.483-.954.624.598 1.51.954 2.483.954 1.394 0 2.637-.705 3.135-1.848.074-.172.077-.366.008-.54l-1.604-4.125V9.71c0-.39-.318-.71-.71-.71H8.292z" fill="#FFFFFE"/></g></svg>
